packages/trader/src/Assets/SvgComponents/trade_explanations/img-vanilla.svg

<svg width="328" height="164" viewBox="0 0 328 164" fill="none" xmlns="http://www.w3.org/2000/svg">
<rect width="328" height="164" rx="6" fill="var(--general-section-1)"/>
<path d="M186.131 101.337H220.47C223.844 101.337 226.579 104.224 226.579 107.779C226.579 111.346 223.844 114.221 220.47 114.221H64.0325C60.6688 114.221 57.9339 111.346 57.9339 107.779C57.9339 104.224 60.6584 101.337 64.043 101.337H131.191C134.565 101.337 137.3 98.4504 137.3 94.8955C137.3 91.3406 134.576 88.4537 131.191 88.4537H79.2896V88.3941C76.2403 87.9885 73.9454 85.2448 73.9454 82C73.9454 78.7552 76.2403 76.0115 79.2896 75.6059V75.5582H100.666C104.03 75.5582 106.765 72.6713 106.765 69.1164C106.765 65.5496 104.04 62.6627 100.656 62.6627H72.426C69.0519 62.6627 66.3169 59.7758 66.3169 56.2209C66.3169 52.654 69.0414 49.7791 72.426 49.7791H217.421C220.795 49.7791 223.53 52.654 223.53 56.2209C223.53 59.7758 220.795 62.6627 217.421 62.6627H160.94C157.577 62.6627 154.842 65.5496 154.842 69.1045C154.842 72.6594 157.577 75.5463 160.951 75.5463H194.525C197.899 75.5463 200.634 78.4451 200.634 82C200.634 85.5549 197.899 88.4418 194.525 88.4418H176.208C172.844 88.4418 170.109 91.3287 170.109 94.8836C170.109 98.4504 172.834 101.337 176.208 101.337H186.131ZM54.0986 49.7672C57.4833 49.7672 60.2182 52.6541 60.2182 56.209C60.2182 59.7877 57.4833 62.6627 54.1091 62.6627C50.735 62.6627 48 59.7758 48 56.2209C48 52.654 50.735 49.7791 54.1091 49.7791L54.0986 49.7672ZM197.574 24H240.317C243.681 24 246.416 26.875 246.416 30.4418C246.416 34.0086 243.691 36.8836 240.317 36.8836H197.574C194.21 36.8836 191.475 33.9967 191.475 30.4418C191.475 26.875 194.2 24 197.574 24ZM171.629 24C175.003 24 177.738 26.875 177.738 30.4418C177.738 34.0086 175.003 36.8836 171.629 36.8836C168.254 36.8836 165.53 33.9967 165.53 30.4418C165.53 26.875 168.254 24 171.629 24ZM245.651 49.7672H256.339C259.713 49.7672 262.448 52.6541 262.448 56.209C262.448 59.7877 259.713 62.6627 256.339 62.6627H245.651C242.287 62.6627 239.552 59.7758 239.552 56.2209C239.552 52.654 242.276 49.7791 245.651 49.7791V49.7672ZM218.94 75.5582H241.836C245.21 75.5582 247.945 78.4451 247.945 82C247.945 85.5549 245.221 88.4418 241.836 88.4418H218.951C215.577 88.4418 212.842 85.5549 212.842 82C212.842 78.4451 215.566 75.5582 218.951 75.5582H218.94ZM240.317 101.337H273.891C277.265 101.337 280 104.224 280 107.779C280 111.346 277.265 114.221 273.891 114.221H240.317C236.943 114.221 234.208 111.346 234.208 107.779C234.208 104.224 236.943 101.337 240.317 101.337ZM94.5572 127.116H163.235C166.609 127.116 169.344 130.003 169.344 133.558C169.344 137.125 166.609 140 163.235 140H94.5572C91.183 140 88.4481 137.125 88.4481 133.558C88.4481 129.991 91.1725 127.116 94.5572 127.116ZM186.131 127.116H196.82C200.183 127.116 202.918 130.003 202.918 133.558C202.918 137.125 200.194 140 196.82 140H186.131C182.757 140 180.022 137.125 180.022 133.558C180.022 129.991 182.757 127.116 186.131 127.116Z" fill="var(--fill-normal)"/>
<g clip-path="url(#clip0_8025_93287)">
<path d="M133 82H140V96H133V82Z" fill="#85ACB0"/>
<path d="M103.25 103H140V110H96.25L103.25 103Z" fill="#85ACB0"/>
<path d="M128.05 61H122.5C118.634 61 115.5 57.866 115.5 54H140V75H133V65.9497L88.9494 110H84V105.05L128.05 61Z" fill="#FF444F"/>
</g>
<g clip-path="url(#clip1_8025_93287)">
<path d="M237 82H244V68H237V82Z" fill="#85ACB0"/>
<path d="M207.25 61H244V54H200.25L207.25 61Z" fill="#85ACB0"/>
<path d="M232.05 103H226.5C222.634 103 219.5 106.134 219.5 110H244V89H237V98.0503L192.949 53.9998H188V58.9499L232.05 103Z" fill="#FF444F"/>
</g>
<defs>
<clipPath id="clip0_8025_93287">
<rect width="56" height="56" fill="var(--fill-normal)" transform="translate(84 54)"/>
</clipPath>
<clipPath id="clip1_8025_93287">
<rect width="56" height="56" fill="white" transform="translate(188 54)"/>
</clipPath>
</defs>
</svg>

<svg width="328" height="164" fill="none" xmlns="http://www.w3.org/2000/svg"><rect width="328" height="164" rx="6" fill="var(--general-section-1)"/><path d="M186.131 101.337h34.339c3.374 0 6.109 2.887 6.109 6.442 0 3.567-2.735 6.442-6.109 6.442H64.032c-3.363 0-6.098-2.875-6.098-6.442 0-3.555 2.724-6.442 6.109-6.442h67.148c3.374 0 6.109-2.887 6.109-6.442 0-3.554-2.724-6.441-6.109-6.441H79.29v-.06c-3.05-.406-5.345-3.15-5.345-6.394 0-3.245 2.295-5.989 5.345-6.394v-.048h21.376c3.364 0 6.099-2.887 6.099-6.442 0-3.566-2.725-6.453-6.109-6.453h-28.23c-3.374 0-6.11-2.887-6.11-6.442 0-3.567 2.725-6.442 6.11-6.442h144.995c3.374 0 6.109 2.875 6.109 6.442 0 3.555-2.735 6.442-6.109 6.442H160.94c-3.363 0-6.098 2.887-6.098 6.442 0 3.554 2.735 6.441 6.109 6.441h33.574c3.374 0 6.109 2.9 6.109 6.454 0 3.555-2.735 6.442-6.109 6.442h-18.317c-3.364 0-6.099 2.887-6.099 6.442 0 3.566 2.725 6.453 6.099 6.453h9.923zM54.099 49.767c3.384 0 6.12 2.887 6.12 6.442 0 3.579-2.736 6.454-6.11 6.454S48 59.776 48 56.22c0-3.567 2.735-6.442 6.11-6.442l-.011-.012zM197.574 24h42.743c3.364 0 6.099 2.875 6.099 6.442s-2.725 6.442-6.099 6.442h-42.743c-3.364 0-6.099-2.887-6.099-6.442 0-3.567 2.725-6.442 6.099-6.442zm-25.945 0c3.374 0 6.109 2.875 6.109 6.442s-2.735 6.442-6.109 6.442c-3.375 0-6.099-2.887-6.099-6.442 0-3.567 2.724-6.442 6.099-6.442zm74.022 25.767h10.688c3.374 0 6.109 2.887 6.109 6.442 0 3.579-2.735 6.454-6.109 6.454h-10.688c-3.364 0-6.099-2.887-6.099-6.442 0-3.567 2.724-6.442 6.099-6.442v-.012zM218.94 75.558h22.896c3.374 0 6.109 2.887 6.109 6.442s-2.724 6.442-6.109 6.442h-22.885c-3.374 0-6.109-2.887-6.109-6.442s2.724-6.442 6.109-6.442h-.011zm21.377 25.779h33.574c3.374 0 6.109 2.887 6.109 6.442 0 3.567-2.735 6.442-6.109 6.442h-33.574c-3.374 0-6.109-2.875-6.109-6.442 0-3.555 2.735-6.442 6.109-6.442zm-145.76 25.779h68.678c3.374 0 6.109 2.887 6.109 6.442 0 3.567-2.735 6.442-6.109 6.442H94.557c-3.374 0-6.109-2.875-6.109-6.442s2.725-6.442 6.11-6.442zm91.574 0h10.689c3.363 0 6.098 2.887 6.098 6.442 0 3.567-2.724 6.442-6.098 6.442h-10.689c-3.374 0-6.109-2.875-6.109-6.442s2.735-6.442 6.109-6.442z" fill="var(--fill-normal)"/><g clip-path="url(#prefix__clip0_8025_93287)"><path d="M133 82h7v14h-7V82zM103.25 103H140v7H96.25l7-7z" fill="#85ACB0"/><path d="M128.05 61h-5.55a7 7 0 01-7-7H140v21h-7v-9.05L88.95 110H84v-4.95L128.05 61z" fill="#FF444F"/></g><g clip-path="url(#prefix__clip1_8025_93287)"><path d="M237 82h7V68h-7v14zM207.25 61H244v-7h-43.75l7 7z" fill="#85ACB0"/><path d="M232.05 103h-5.55a7 7 0 00-7 7H244V89h-7v9.05L192.949 54H188v4.95L232.05 103z" fill="#FF444F"/></g><defs><clipPath id="prefix__clip0_8025_93287"><path fill="var(--fill-normal)" transform="translate(84 54)" d="M0 0h56v56H0z"/></clipPath><clipPath id="prefix__clip1_8025_93287"><path fill="#fff" transform="translate(188 54)" d="M0 0h56v56H0z"/></clipPath></defs></svg>
